src/images/Delete.svg

<svg viewBox="0 0 24 24">
  <path d="M22 4h-6V2c0-1.1-.9-2-2-2h-4C8.9 0 8 .9 8 2v2H2v2h2v14c0 1.1.9 2 2 2h12c1.1 0 2-.9 2-2V6h2V4zM10 2h4v2h-4V2zm8 18H6V6h12v14zM14 8h2v10h-2V8zm-3 0h2v10h-2V8zM8 8h2v10H8V8z"></path>
</svg>

<svg viewBox="0 0 24 24" xmlns="http://www.w3.org/2000/svg">
<path d="M22 4H20H16V2C16 0.9 15.1 0 14 0H10C8.9 0 8 0.9 8 2V4H4H2V6H4V20C4 21.1 4.9 22 6 22H18C19.1 22 20 21.1 20 20V6H22V4ZM10 2H14V4H10V2ZM18 20H6V6H8H16H18V20ZM14 8H16V18H14V8ZM11 8H13V18H11V8ZM8 8H10V18H8V8Z" />
</svg>
